<?xml version="1.0" encoding="UTF-8"?>
<map version="1.10" tiledversion="1.11.2" orientation="orthogonal" renderorder="right-down" width="20" height="10" tilewidth="16" tileheight="16" infinite="0" nextlayerid="4" nextobjectid="1">
 <tileset firstgid="1" source="tileset.tsx"/>
 <layer id="1" name="floor" width="20" height="10">
  <data encoding="csv">
0,0,0,0,0,0,0,0,0,0,0,0,0,0,0,0,0,0,0,0,
0,1136,1136,1136,1136,1136,1136,1136,1136,1136,1136,1136,1136,1136,1136,1136,1136,1136,1136,0,
0,1136,1136,980,980,980,1136,980,980,980,1136,980,980,980,1136,980,980,980,1136,0,
0,1136,1136,1136,980,1136,1136,980,1136,1136,1136,980,1136,1136,1136,1136,980,1136,1136,0,
0,1136,1136,1136,980,1136,1136,980,980,980,1136,980,980,980,1136,1136,980,1136,1136,0,
0,1136,1136,1136,980,1136,1136,980,1136,1136,1136,1136,1136,980,1136,1136,980,1136,1136,0,
0,1136,1136,1136,980,1136,1136,980,980,980,1136,980,980,980,1136,1136,980,1136,1136,0,
0,1136,1136,1136,1136,1136,1136,1136,1136,1136,1136,1136,1136,1136,1136,1136,1136,1136,1136,0,
0,1136,1136,1136,1136,1136,1136,1136,1136,1136,1136,1136,1136,1136,1136,1136,1136,1136,1136,0,
0,0,0,0,0,0,0,0,1136,1136,1136,1136,0,0,0,0,0,0,0,0
</data>
 </layer>
 <layer id="3" name="collision_wall" width="20" height="10">
  <data encoding="csv">
1083,1084,1084,1084,1084,1084,1084,1084,1084,1084,1084,1084,1084,1084,1084,1084,1084,1084,1084,1085,
1135,0,0,0,0,0,0,0,0,0,0,0,0,0,0,0,0,0,0,1137,
1135,0,0,0,0,0,0,0,0,0,0,0,0,0,0,0,0,0,0,1137,
1135,0,0,0,0,0,0,0,0,0,0,0,0,0,0,0,0,0,0,1137,
1135,0,0,0,0,0,0,0,0,0,0,0,0,0,0,0,0,0,0,1137,
1135,0,0,0,0,0,0,0,0,0,0,0,0,0,0,0,0,0,0,1137,
1135,0,0,0,0,0,0,0,0,0,0,0,0,0,0,0,0,0,0,1137,
1135,0,0,0,0,0,0,0,0,0,0,0,0,0,0,0,0,0,0,1137,
1135,0,0,0,0,0,0,0,0,0,0,0,0,0,0,0,0,0,0,1137,
1187,1188,1188,1188,1188,1188,1188,1188,0,0,0,0,1188,1188,1188,1188,1188,1188,1188,1189
</data>
 </layer>
</map>
